X:1
T:Kingman Park, 86.86.86 D
T:Kingman Park, 86.86.86 D
T:J. P. Vance, 1893
T:Public Domain Courtesy of the Cyber Hymnal™
C:J. P. Vance, 1893
Z:Public Domain
Z:Courtesy of the Cyber Hymnal™
%%score ( 1 2 ) ( 3 4 )
L:1/8
Q:1/4=110
M:4/4
K:F
V:1 treble 
V:2 treble 
V:3 bass 
V:4 bass 
V:1
 F2 | F3 [FG] [FA]2 [GB]2 | [Ac]2 [^Gd]2 [Ac]3 [FA] | [Fc]2 [FA]2 F3 [EG] | [FA]6 [FA]2 | %5
 [EG]3 [EA] [EB]2 [EG]2 | [FA]3 [FB] [Fc]2 [Af]2 | [Ae]2 [Ad]2 [Gc]2 [F=B]2 | [Ec]6 [Ac]2 | %9
 [GB]2 ([GB][FA]) [EG]2 ([FA][GB]) | [FA]3 [GB] [Ac]2 [FA]2 | [EG]2 ([FA][GB]) [Ac]2 [GB]2 | %12
 [FA]6 [FA]2 | [FA]3 [FA] [FB]2 [Fc]2 | [Fd]2 [GA]2 [Fc]2 [FB]2 | [FG]3!<(! [FG] [D^G]2!<)! [DG]2 | %16
 !fermata![EA]6 [EG]2 | F3 [EG] [FA]2 [GB]2 | [Ac]2 [^Gd]2 [Ac]3 [FA] | [Fc]2 [FA]2 F3 [EG] | %20
 [FA]6 [Fc]2 | [Ff]3 [Ff] [Fe]2 [Fd]2 | [Fc]2 F2 [Dc]2 [_DB]2 | [CA]2 [CF]2 [CEG]3 [CF] | [CF]6 |] %25
V:2
 F2 | F3 x5 | x8 | x4 F3 x | x8 | x8 | x8 | x8 | x8 | x8 | x8 | x8 | x8 | x8 | x8 | x8 | x8 | %17
 F3 x5 | x8 | x4 F3 x | x8 | x8 | x2 F2 x4 | x8 | x6 |] %25
V:3
 [F,A,]2 | [F,A,]3 [F,B,] [F,C]2 [F,C]2 | [F,C]2 [F,=B,]2 [F,C]3 [F,C] | %3
 [F,A,]2 F,2 [D,A,]3 [C,C] | [F,C]6 C2 | [B,C]3 [A,C] [G,C]2 [C,C]2 | [F,C]3 [G,C] [A,C]2 [D,C]2 | %7
 [E,^C]2 [F,D]2 [G,E]2 [G,D]2 | [C,C]6 z2 | z8 | z8 | z8 | F,6 [F,C]2 | %13
 [F,C]3 [_E,C] [D,B,]2 [C,A,]2 | [B,,B,]2 [^C,A,]2 [D,B,]2 [G,B,]2 | [B,D]3 [B,D] [B,D]2 [B,D]2 | %16
 !fermata![A,^C]6 [B,=C]2 | [A,C]3 [G,C] [F,C]2 [F,C]2 | [F,C]2 [F,=B,]2 [F,C]3 [F,C] | %19
 [F,A,]2 F,2 [D,A,]3 [C,C] | [F,C]6 [F,A,]2 | [B,,D]3 [B,,D] [B,,C]2 [B,,B,]2 | %22
 [C,A,]2 [D,A,]2 [B,,G,]2 [G,,E,]2 | [C,F,]2 [C,A,]2 [C,B,]3 [F,A,] | [F,A,]6 |] %25
V:4
 x2 | x8 | x8 | x2 F,2 x4 | x6 C2 | x8 | x8 | x8 | x8 | x8 | x8 | x8 | x8 | x8 | x8 | x8 | x8 | %17
 x8 | x8 | x2 F,2 x4 | x8 | x8 | x8 | x8 | x6 |] %25

